!!!COM: Palestrina, Giovanni Perluigi da
!!!OPR: Missa O magnum mysterium
!!!OMD: Sanctus
!!!OTL: Pleni
**kern	**kern	**kern
*Ibass	*Itenor	*Icalto
!Bassus	!Tenor	!Altus
*clefF4	*clefGv2	*clefG2
*k[]	*k[]	*k[]
*E:phr	*E:phr	*E:phr
*M4/2	*M4/2	*M4/2
=39	=39	=39
0r	1B	0r
.	2A	.
.	2G	.
=40	=40	=40
1r	1c	0r
1E	1B	.
=41	=41	=41
2D	2r	0r
2C	1e	.
1F	.	.
.	2d	.
=42	=42	=42
2E	1.c	1r
1A	.	.
.	.	1e
2G	2B	.
=43	=43	=43
2F	2A	2d
2E	2G	2c
1D	2A	1f
.	2B	.
=44	=44	=44
2.C	1c	2e
.	.	1a
4D	.	.
1E	1B	.
.	.	2g
=45	=45	=45
1AA	2r	2f
.	2c	2e
1r	2B	2d
.	2A	2c
=46	=46	=46
1r	1d	1B
2r	2c	2A
2E	2B	2G
=47	=47	=47
2D	2d	2B
2C	2e	2.c
1F	4A	.
.	4B	4B
.	4c	[2A
.	4A	.
=48	=48	=48
1E	1B	2A]
.	.	2G#
2r	1c	1A
[2A	.	.
=49	=49	=49
2A]	2r	1E
2G	2B	.
2F	2A	1r
4E	2G	.
4D	.	.
=50	=50	=50
4C	1c	1e
4D	.	.
4E	.	.
4F	.	.
2G	2B	2d
2A	[2e	2c
=51	=51	=51
1D	2e]	1f
.	2d	.
2.A	2.c	2e
.	.	[2a
4G	4B	.
=52	=52	=52
2F	2A	2a]
2E	2.B	2g
2D	.	2f
.	4A	.
2C	2c	2e
=53	=53	=53
1D	2B	2d
.	1A	2c
1E	.	1B
.	2G#	.
=54	=54	=54
1AA	0A	4A
.	.	4B
.	.	4c
.	.	4d
2r	.	4e
.	.	4c
[2D	.	4d
.	.	4e
=55	=55	=55
4D]	2r	1f
4E	.	.
4F	2.A	.
4G	.	.
2A	.	2e
.	4B	.
2F	4c	2A
.	4d	.
=56	=56	=56
2G	2e	0r
2A	2c	.
2D	2d	.
[2A	2e	.
=57	=57	=57
4A]	2A	2r
4G	.	.
4F	2.c	2.A
4E	.	.
1F	.	.
.	4B	4B
.	2A	4c
.	.	4d
=58	=58	=58
1C	2G	2e
.	2A	2c
2r	2B	2d
[2AA	[2c	[2e
=59	=59	=59
4AA]	4c]	4e]
4BB	4B	4d
4C	2A	2c
4D	.	.
2E	2G#	2B
2C	[2A	2A
=60	=60	=60
2D	2A]	1B
2E	2G#	.
2.AA	1A	2A
.	.	[2c
4BB	.	.
=61	=61	=61
2.C	2r	4c]
.	.	4d
.	2.G	4e
4D	.	4f
1E	.	2g
.	4A	.
.	4B	2e
.	4c	.
=62	=62	=62
0r	2d	2f#
.	2B	1g
.	2c	.
.	2d	2f#
=63	=63	=63
2r	1G	4g
.	.	4f
2.C	.	4e
.	.	4d
.	1c	1e
4D	.	.
4E	.	.
4F	.	.
=64	=64	=64
2G	2B	2d
2E	2e	1c
2F	1d	.
2G	.	2B
=65	=65	=65
1A	2c	1c
.	2.A	.
[1AA	.	2r
.	4B	.
.	4c	4A
.	4d	4B
=66	=66	=66
1AA]	2e	4c
.	.	4d
.	2c	2e
1r	2d	2f
.	2e	2g
=67	=67	=67
2r	1A	4a
.	.	4g
2.D	.	4f
.	.	4e
.	1d	1f
4E	.	.
4F	.	.
4G	.	.
=68	=68	=68
2A	2c	2e
2F	2A	2d
2G	2B	2e
2A	2c#	2e
=69	=69	=69
0D	2d	0f
.	2A	.
.	1d	.
=70	=70	=70
[0A	[0c#	[0e
=71	=71	=71
0A]	0c#]	0e]
*-	*-	*-
!!!CDT: 1525/^1526/-1594/2/2
!!!OCY: Italia
!!!AGN: Mass (Parody)
!!!AST: renaissance, vocal
!!!ASW: Motet 1569 (Palestrina)
!!!PWK: Masses, Book 4
!!!RNB: Cadence finals: A,C,G,F
!!!YOR: Le Opere Complete, v. 10, p. 150
!!!YOO: Rome, Italy: Fratelli Scalera
!!!END: 1992//
!!!EED: John Miller
!!!YEC: Copyright 2000, John Miller
!!!YEN: United States of America
!!!YEM: Rights to all derivative electronic formats reserved.
!!!YEM: Refer to licensing agreement for further details.
!!!YEM: This file must be accompanied by the licensing agreement.
!!!YEM: A copy of the licensing agreement may be found at http://www.music-cog.ohio-state.edu/HumdrumDatabases/Palestrina/license.txt
!!!EMD: converted to Humdrum by Bret Aarden
